X:85
T:An Phis Fliuch
T:Choice Wife, The
M:9/8
L:1/8
C:Traditional
S:Planxty
R:slip jig
K:G
FGA AFA c2A|BAG (4FGAF GED|FGA AFA d2 A|d(3.g.f.e d^cA GED:|
d^cd fge =c2A|d^cd fdf ~g3|~a3 ged c2A|BAG (4FGAF GED:|
FGA AFd AFd|AFd AFd GED|FGA AFA c2A|BAG (4FGAF GED:|
~D3 ~D3 c3|c2B c2A GED|~D3 ~D3 d2^c|d(3.g.f.e dcA GED:|
d^cd fge =c2A|d^cd fdf ~g3|~a3 ged c2A|BAG (4FGAF GED:||

